X: 59
T: No_63_Ouwe_Dance_Song.krn
N: Derived from No_63_Ouwe_Dance_Song.krn
%%abc-version 2.0
%%abcx-abcm2ps-target-version 5.9.1 (29 Sep 2008)
%%abc-creator hum2abc beta
%%abcx-conversion-date 2019/03/15 08:25:35
%%humdrum-veritas 3094059860
%%humdrum-veritas-data 778119020
%%linebreak <none>
%%barnumbers 0
L: 1/8
M: 2/4
K: Ab clef=bass
[K:clef=bass][M:2/4]A,F,F,2 [I:setbarnb 2]| 
F,2F,F, | 
F,2z2 | 
A,F,F,2 | 
F,2F,F, | 
F,2z2 :|]|:  
F,2F,E | 
FE EB, | 
D2z2 | 
DB, B,D | 
ED DB, | 
DB, A,F, | 
A,2z2 | 
A,F, F,F, | 
F,2A,2 | 
C2B,2 | 
CB,B,2 | 
A,2F,2 | 
B,2B, z | 
A,F, F,F, | 
F,2A,2 | 
CB, CB, | 
A,2F, z | 
B,A, B,A, | 
F,2A,2 | 
F,2F, z | 
A,F, F,F, | 
F,2A,2 | 
C2B,2 | 
CB, B, z | 
A,2F,2 | 
B,B, B, z | 
C2B,2 | 
CB,B,2 | 
A,2F,2 | 
B,B, B, z | 
!accent!B,/A,/F,F,2 | 
F,3A, | 
A,F,F,2 | 
A,F, z A, | 
B,2A,2 | 
B,3A,/F,/ | 
A,3A, | 
F,2z2 | 
A,F, F,F, | 
A,F,F,2 | 
F,2F,2 | 
F,2z2 | 
z4 :|]|:  
FFF2 | 
G2G2 | 
GFF2 | 
E2B,2 | 
B,B, B,B, | 
B,2B, z | 
C2A,2 | 
B,B, B, z | 
B,2B,2 | 
A,2F,F, | 
B,B,B,2 | 
B,2B, z | 
C2A,2 | 
B,B, B, z | 
B,A, F,F, | 
F,2A,2 | 
C2B,2 | 
CB, B,A, | 
B,B, B, z | 
B,B,B,2 | 
B,2B,E | 
EB, B,A, | 
B,B, B, z | 
CB,A,2 | 
F,3A, | 
B,B,B,2 | 
F,3A, | 
B,B,A,2 | 
B,2A,F, | 
A,3A, | 
[M:3/4]F,4z2 | 
[M:2/4]F,2z F | 
F2CD | 
C2A,B, | 
[M:3/8]B,2A, | 
[M:2/4]F,F, F, z | 
[M:5/8]F,2F,2A, | 
[M:2/4]C2A,C | 
B,B,z2 | 
[M:3/4]B,3/C/ B,A, F,A, | 
[M:5/4]F,4z6 [I:setbarnb 91]||  
[M:2/4]F,2z2 | 
F,2z F | 
F2CD | 
C2A,B, | 
[M:3/8]B,2A, | 
[M:2/4]F,F, F, z | 
[M:5/8]F,2F,2A, | 
[M:2/4]C2A,C | 
B,B,z2 | 
[M:3/4]B,3/C/ B,A, F,A, | 
F,2F,2F,2 | 
A,3F,F,2 | 
[M:2/4]F,2z2 | 
[M:3/4]A,3F,F,2 | 
[M:2/4]A,F,F,2 | 
F,2F,2 | 
F,2z2 | 
z4 | 
B,/A,3/ A,A, | 
[M:7/8]A,2A,A,A,A,2 | 
[M:2/4]B,/A,3/ A,A, | 
[M:5/8]A,2A,A,A, | 
A,2z2z |]  



